ALTDEU
CUT[Lass fragen sein]
REG[Europa, Mitteleuropa, Deutschland]
KEY[A0483  08  F 4/4]
MEL[-5_  1_1_1_2_  3_4#_5__
    6_.54_3_  2__3__
    5_4_3_2_  3_.32_
    3_  5_4_3_2_  3_.32_
    3_  4__0_6_  5__0_
    5_  5_3_2_1_  2__2__  1__. //] >>
FCT[Romanze, Ballade, Lied]
CMT[M. Franck, Musikal. Convinium 1621 No. 23.]
